X: 56
T: Sailing Back of Whiddy   #2
R: air, hornpipe
%S: s:2 b:9(5+4)
B: O'Neill's 1850 #56
Z: 1999 John Chambers <jc@trillian.mit.edu>
N: Compacted via repeats and multiple endings [JC]
Q: "With expression"
O: J.O'Neill
M: C
L: 1/8
K: C
|: C>DE>F G>E C2 | E>FG>c d>c B<G | e>dc>B A>G c2 | C>DE>F [1 G>F E<D :|[2 G>E D<C ||
|| C>D E<G D>F E<C | E<F G<c d>c B<G | e>d c>B AG Hc>c | C>D E>G D>F E<C |]
